X:1
T:Irish Molly
M:2/2
L:1/8
S:Susan Bell  tradtunes 2006-4-8
%Q:280
K:G
B->c | d>c d>e (3dBG (3DGB | d>c c>A E2 A->B | c>B c>d (3cAF (3DFA | d>c A>B B2 B->c |
d>c d>e (3dBG (3DGB | c>d e>f g2 f->e | d>B e>d c>A F>G | (3ABA G->F G2 :|
|: G->F | E>D E>F G>F G>A | (3Bee e>d e2 F-E | (3Ddd d>c d>c B>A | (3Ggg g>f g2 G-F |
E>D E>F G>F G>A | (3Bee e>d e2 e-f | g>e f>d e>d B>A | (3GFG (3AGF E2 :|
D2 | B2 B3 B c>c | d2 d3 B A>G | F2 G2 d2 c2 | c4- c D/E/ F/E/D | c2 c3 c B>c |
e2 e3 e de | f2 e2 A2 A2 | B4- B d d/c/c | B2 B3 B c>c | d2 d3 B A>G |
e4 f4 | g4- g g f>e | d2 d3 B c>d | e2 e3 E F>G | B2 A>B c2 F2 | G6 |]
